img/label_1.svg

<svg width="143" height="33" viewBox="0 0 143 33" fill="none" xmlns="http://www.w3.org/2000/svg">
<path fill-rule="evenodd" clip-rule="evenodd" d="M0.309692 16.8177C0.309692 16.2981 0.412034 15.7836 0.610875 15.3036C0.809716 14.8235 1.10116 14.3873 1.46857 14.0199C1.83598 13.6525 2.27216 13.3611 2.75221 13.1622C3.23225 12.9634 3.74676 12.8611 4.26636 12.8611C4.78595 12.8611 5.30046 12.9634 5.78051 13.1622C6.26055 13.3611 6.69673 13.6525 7.06414 14.0199C7.43155 14.3873 7.723 14.8235 7.92184 15.3036C8.12068 15.7836 8.22302 16.2981 8.22302 16.8177C8.22302 17.8671 7.80616 18.8735 7.06414 19.6155C6.32212 20.3575 5.31573 20.7744 4.26636 20.7744C3.21698 20.7744 2.21059 20.3575 1.46857 19.6155C0.726554 18.8735 0.309692 17.8671 0.309692 16.8177ZM28.0964 20.7777C27.0466 20.7777 26.0397 20.3607 25.2974 19.6184C24.5551 18.876 24.138 17.8692 24.138 16.8194C24.138 15.7696 24.5551 14.7628 25.2974 14.0204C26.0397 13.2781 27.0466 12.8611 28.0964 12.8611C29.1457 12.8611 30.1521 13.2779 30.8942 14.0199C31.6362 14.762 32.053 15.7683 32.053 16.8177C32.053 17.8671 31.6362 18.8735 30.8942 19.6155C30.1521 20.3575 29.1457 20.7744 28.0964 20.7744V20.7777ZM28.0964 0.984375C26.0177 0.984813 23.9595 1.39473 22.0393 2.1907C20.119 2.98668 18.3744 4.15313 16.905 5.62344C15.4356 7.09374 14.2703 8.8391 13.4755 10.7598C12.6808 12.6806 12.2722 14.7391 12.273 16.8177C12.2722 18.8964 12.6808 20.9549 13.4755 22.8756C14.2703 24.7963 15.4356 26.5417 16.905 28.012C18.3744 29.4823 20.119 30.6488 22.0393 31.4447C23.9595 32.2407 26.0177 32.6506 28.0964 32.6511C30.1748 32.6502 32.2326 32.2399 34.1525 31.4438C36.0723 30.6476 37.8165 29.4811 39.2856 28.0108C40.7546 26.5406 41.9196 24.7953 42.7142 22.8748C43.5087 20.9543 43.9173 18.8961 43.9164 16.8177C43.9173 14.7393 43.5087 12.6811 42.7142 10.7606C41.9196 8.84008 40.7546 7.09487 39.2856 5.62461C37.8165 4.15435 36.0723 2.98783 34.1525 2.19166C32.2326 1.39549 30.1748 0.98525 28.0964 0.984375ZM141.177 15.5911C141.427 15.5911 141.577 15.4811 141.577 15.2777C141.577 15.0911 141.477 14.9711 141.197 14.9711H140.937V15.5911H141.18H141.177ZM140.557 14.6577H141.26C141.65 14.6577 141.983 14.8144 141.983 15.2577C141.983 15.4811 141.843 15.6944 141.64 15.7677L142.067 16.5344H141.643L141.32 15.8877H140.94V16.5377H140.56V14.6577H140.557ZM142.603 15.6211C142.603 14.7511 142.003 14.1277 141.223 14.1277C140.447 14.1277 139.857 14.7511 139.857 15.6211C139.857 16.5011 140.447 17.1011 141.223 17.1011C142 17.1011 142.603 16.5011 142.603 15.6211ZM139.483 15.6211C139.483 14.5377 140.27 13.7944 141.223 13.7944C142.187 13.7944 142.973 14.5377 142.973 15.6211C142.973 16.7044 142.187 17.4444 141.223 17.4444C140.27 17.4444 139.483 16.7044 139.483 15.6211ZM127.877 23.0277C128.11 23.0277 128.31 22.8277 128.31 22.5944V21.0077C128.31 20.7744 128.11 20.5744 127.877 20.5744H127.81C127.617 20.5744 127.42 20.3844 127.42 20.1911V10.771C127.42 10.5577 127.207 10.341 126.993 10.341H125.41C125.193 10.341 124.98 10.5577 124.98 10.7744V21.2044L124.987 21.4777C125.014 21.8804 125.187 22.2594 125.472 22.5444C125.758 22.8295 126.137 23.0012 126.54 23.0277H127.873H127.877ZM58.263 12.8277C60.4164 12.8277 62.2297 14.6544 62.2297 16.8177C62.2297 17.8675 61.8127 18.8744 61.0703 19.6167C60.328 20.359 59.3212 20.7761 58.2714 20.7761C57.2216 20.7761 56.2147 20.359 55.4724 19.6167C54.7301 18.8744 54.313 17.8675 54.313 16.8177C54.313 14.6177 56.0864 12.8311 58.263 12.8311V12.8277ZM58.263 10.3177C56.5459 10.3256 54.902 11.0145 53.6921 12.2331C52.4823 13.4517 51.8053 15.1005 51.8097 16.8177C51.8097 20.4411 54.643 23.2844 58.2664 23.2844C59.1189 23.2946 59.9649 23.1345 60.7547 22.8132C61.5444 22.492 62.262 22.0162 62.8654 21.4138C63.4687 20.8114 63.9456 20.0945 64.2681 19.3053C64.5905 18.516 64.752 17.6703 64.743 16.8177C64.743 13.2344 61.8364 10.3177 58.2664 10.3177H58.263ZM109.793 20.4511C109.677 20.7844 108.973 21.4077 108.173 21.4077C107.333 21.4077 106.863 20.9011 106.863 20.1411C106.863 19.3377 107.43 18.8477 108.463 18.8477C109.187 18.8477 109.793 19.1211 109.793 19.1211V20.4544V20.4511ZM108.74 13.7877C107.273 13.7877 105.847 14.1577 105.653 14.2377C105.457 14.2944 105.283 14.4511 105.36 14.7844L105.557 15.8011C105.593 16.0744 105.77 16.2877 106.063 16.1911C106.59 16.0344 107.78 15.8577 108.603 15.8577C109.56 15.8577 109.89 16.4077 109.85 17.5577C109.85 17.5577 109.03 17.3044 108.113 17.3044C105.83 17.3044 104.52 18.5377 104.52 20.1377C104.52 22.0711 105.77 23.2277 107.567 23.2277C108.973 23.2277 109.87 22.6011 110.4 22.0944V22.5777C110.4 22.8111 110.593 23.0111 110.827 23.0111H111.707C111.94 23.0111 112.137 22.8177 112.137 22.5811V17.7177C112.137 15.2577 111.55 13.7911 108.737 13.7911L108.74 13.7877ZM92.343 13.7877C90.6164 13.7877 89.7764 14.7177 89.443 15.0877V14.4177C89.443 14.1844 89.243 13.9844 89.0097 13.9844H87.9897C87.8754 13.9853 87.766 14.0313 87.6855 14.1125C87.6049 14.1937 87.5597 14.3034 87.5597 14.4177V22.5844C87.5597 22.8177 87.773 23.0177 87.9897 23.0177H89.433C89.8664 23.0177 89.9997 22.9177 89.9997 22.5844V17.4211C90.1265 17.0051 90.3862 16.6423 90.7391 16.3882C91.0919 16.1341 91.5184 16.0028 91.953 16.0144C93.0464 16.0144 93.5164 16.7377 93.5164 17.9111V22.5811C93.5164 22.8144 93.7097 23.0144 93.9464 23.0144H95.5264C95.743 23.0144 95.9597 22.8144 95.9597 22.5811V17.9111C95.9597 15.7211 95.213 13.7877 92.343 13.7877ZM70.843 20.9977C70.1838 21.0052 69.5353 20.8298 68.9697 20.4911V17.2644C69.1352 16.8786 69.4143 16.5523 69.7697 16.329C70.1252 16.1057 70.5403 15.996 70.9597 16.0144C72.3664 16.0144 73.0897 17.2477 73.0897 18.5144C73.0897 19.7877 72.3264 20.9977 70.843 20.9977ZM71.293 13.7877C69.4364 13.7877 68.4097 15.0544 68.3464 15.1344V14.4144C68.3464 14.1811 68.153 13.9811 67.9164 13.9811H66.9564C66.723 13.9811 66.5264 14.1811 66.5264 14.4144V26.2511C66.5264 26.4677 66.723 26.6844 66.9597 26.6844H68.5397C68.753 26.6844 68.9697 26.4677 68.9697 26.2511V22.8511C69.6664 23.094 70.3985 23.2201 71.1364 23.2244C73.833 23.2244 75.6097 21.1511 75.6097 18.5144C75.6097 15.7777 73.753 13.7844 71.293 13.7844V13.7877ZM135.693 17.3644C135.653 16.4844 134.95 15.7977 133.953 15.7977C132.86 15.7977 132.16 16.4644 132.04 17.3644H135.693ZM134.01 13.7844C136.353 13.7844 138.15 15.5244 138.15 17.9644C138.15 18.1011 138.13 18.4144 138.11 18.5511C138.09 18.7844 137.877 18.9611 137.68 18.9611H131.9C131.92 20.0744 132.84 21.0544 134.147 21.0544C135.047 21.0544 135.67 20.7211 136.08 20.3877C136.293 20.2144 136.53 20.1944 136.667 20.3877L137.427 21.4044C137.583 21.5811 137.603 21.7944 137.387 21.9911C136.607 22.6577 135.493 23.2244 134.03 23.2244C131.333 23.2244 129.463 21.0711 129.463 18.4911C129.463 15.9544 131.333 13.7844 134.01 13.7844ZM118.727 20.9944C118.307 21.0128 117.892 20.9031 117.537 20.6798C117.181 20.4565 116.902 20.1302 116.737 19.7444V16.5211C116.737 16.5211 117.477 16.0111 118.61 16.0111C120.093 16.0111 120.857 17.2244 120.857 18.4944C120.857 19.7611 120.133 20.9944 118.727 20.9944ZM118.94 13.7844C118.043 13.7844 117.147 14.0011 116.737 14.1744V10.741C116.737 10.5244 116.537 10.3077 116.303 10.3077H114.723C114.51 10.3077 114.293 10.5244 114.293 10.741V22.5811C114.293 22.8144 114.51 23.0144 114.727 23.0144H115.407C115.42 23.0144 115.433 23.0144 115.447 23.0077H115.63C115.863 23.0077 116.063 22.8144 116.063 22.5777V21.9111L116.07 21.8777C116.07 21.8777 117.103 23.2277 119.077 23.2277C121.54 23.2277 123.317 21.0777 123.317 18.4944C123.317 15.8611 121.617 13.7877 118.94 13.7877V13.7844ZM105.127 10.3077H95.943C95.7297 10.3077 95.573 10.481 95.573 10.6744V12.2811C95.573 12.4744 95.7297 12.6511 95.943 12.6511H99.2564V22.6377C99.2564 22.8311 99.4331 23.0077 99.6264 23.0077H101.443C101.64 23.0077 101.817 22.8311 101.817 22.6377V12.6511H105.13C105.343 12.6511 105.497 12.4744 105.497 12.2811V10.6777C105.497 10.481 105.343 10.3077 105.13 10.3077H105.127ZM83.2597 17.3611C83.2197 16.4811 82.5164 15.7944 81.523 15.7944C80.4297 15.7944 79.723 16.4611 79.6097 17.3611H83.2597ZM81.5797 13.7844C83.923 13.7844 85.7197 15.5244 85.7197 17.9644C85.7197 18.1011 85.6997 18.4144 85.6797 18.5511C85.6597 18.7844 85.4464 18.9611 85.253 18.9611H79.4764C79.493 20.0744 80.4097 21.0544 81.7197 21.0544C82.6197 21.0544 83.243 20.7211 83.653 20.3877C83.8697 20.2144 84.103 20.1944 84.2397 20.3877L84.9997 21.4044C85.1564 21.5811 85.1764 21.7944 84.963 21.9911C84.1797 22.6577 83.0664 23.2244 81.603 23.2244C78.9097 23.2244 77.0364 21.0711 77.0364 18.4911C77.0364 15.9544 78.9097 13.7844 81.583 13.7844H81.5797Z" fill="#6D7D93"/>
</svg>

<svg width="143" height="33" fill="none" xmlns="http://www.w3.org/2000/svg"><path fill-rule="evenodd" clip-rule="evenodd" d="M.31 16.818a3.956 3.956 0 1 1 7.912 0 3.956 3.956 0 0 1-7.912 0Zm27.786 3.96a3.958 3.958 0 1 1 3.957-3.96 3.957 3.957 0 0 1-3.957 3.956v.004Zm0-19.794a15.826 15.826 0 0 0-15.823 15.834A15.83 15.83 0 0 0 28.096 32.65a15.829 15.829 0 0 0 15.82-15.833A15.827 15.827 0 0 0 28.096.984Zm113.081 14.607c.25 0 .4-.11.4-.313 0-.187-.1-.307-.38-.307h-.26v.62h.243-.003Zm-.62-.933h.703c.39 0 .723.156.723.6 0 .223-.14.436-.343.51l.427.766h-.424l-.323-.646h-.38v.65h-.38v-1.88h-.003Zm2.046.963c0-.87-.6-1.493-1.38-1.493-.776 0-1.366.623-1.366 1.493 0 .88.59 1.48 1.366 1.48.777 0 1.38-.6 1.38-1.48Zm-3.12 0c0-1.083.787-1.827 1.74-1.827.964 0 1.75.744 1.75 1.827s-.786 1.823-1.75 1.823c-.953 0-1.74-.74-1.74-1.823Zm-11.606 7.407c.233 0 .433-.2.433-.434v-1.586c0-.234-.2-.434-.433-.434h-.067c-.193 0-.39-.19-.39-.383v-9.42c0-.213-.213-.43-.427-.43h-1.583c-.217 0-.43.217-.43.433v10.43l.007.274a1.667 1.667 0 0 0 1.553 1.55h1.337Zm-69.614-10.2c2.153 0 3.967 1.826 3.967 3.99a3.958 3.958 0 1 1-7.917 0c0-2.2 1.773-3.987 3.95-3.987v-.003Zm0-2.51a6.483 6.483 0 0 0-6.453 6.5c0 3.623 2.833 6.466 6.456 6.466a6.4 6.4 0 0 0 6.477-6.466c0-3.584-2.907-6.5-6.477-6.5h-.003Zm51.53 10.133c-.116.333-.82.957-1.62.957-.84 0-1.31-.507-1.31-1.267 0-.803.567-1.293 1.6-1.293.724 0 1.33.273 1.33.273v1.333-.003Zm-1.053-6.663c-1.467 0-2.893.37-3.087.45-.196.056-.37.213-.293.546l.197 1.017c.036.273.213.487.506.39.527-.157 1.717-.333 2.54-.333.957 0 1.287.55 1.247 1.7 0 0-.82-.254-1.737-.254-2.283 0-3.593 1.234-3.593 2.834 0 1.933 1.25 3.09 3.047 3.09a3.964 3.964 0 0 0 2.833-1.134v.484c0 .233.193.433.427.433h.88c.233 0 .43-.193.43-.43v-4.863c0-2.46-.587-3.927-3.4-3.927l.003-.003Zm-16.397 0c-1.727 0-2.567.93-2.9 1.3v-.67c0-.234-.2-.434-.433-.434h-1.02a.433.433 0 0 0-.43.434v8.166a.45.45 0 0 0 .43.434h1.443c.433 0 .567-.1.567-.434v-5.163a1.986 1.986 0 0 1 1.953-1.407c1.093 0 1.563.724 1.563 1.897v4.67c0 .233.194.433.43.433h1.58c.217 0 .434-.2.434-.433v-4.67c0-2.19-.747-4.123-3.617-4.123Zm-21.5 7.21a3.568 3.568 0 0 1-1.873-.507v-3.227a2.067 2.067 0 0 1 1.99-1.25c1.406 0 2.13 1.234 2.13 2.5 0 1.274-.764 2.484-2.247 2.484Zm.45-7.21c-1.857 0-2.883 1.266-2.947 1.346v-.72a.436.436 0 0 0-.43-.433h-.96c-.233 0-.43.2-.43.433v11.837a.45.45 0 0 0 .434.433h1.58c.213 0 .43-.216.43-.433v-3.4a6.7 6.7 0 0 0 2.166.373c2.697 0 4.474-2.073 4.474-4.71 0-2.736-1.857-4.73-4.317-4.73v.004Zm64.4 3.576c-.04-.88-.743-1.566-1.74-1.566-1.093 0-1.793.666-1.913 1.566h3.653Zm-1.683-3.58c2.343 0 4.14 1.74 4.14 4.18 0 .137-.02.45-.04.587a.458.458 0 0 1-.43.41h-5.78c.02 1.113.94 2.093 2.247 2.093.9 0 1.523-.333 1.933-.666.213-.174.45-.194.587 0l.76 1.016c.156.177.176.39-.04.587a5.077 5.077 0 0 1-3.357 1.233c-2.697 0-4.567-2.153-4.567-4.733 0-2.537 1.87-4.707 4.547-4.707Zm-15.283 7.21a2.065 2.065 0 0 1-1.99-1.25v-3.223s.74-.51 1.873-.51c1.483 0 2.247 1.213 2.247 2.483 0 1.267-.724 2.5-2.13 2.5Zm.213-7.21c-.897 0-1.793.217-2.203.39v-3.433c0-.217-.2-.433-.434-.433h-1.58c-.213 0-.43.216-.43.433v11.84c0 .233.217.433.434.433h.68c.013 0 .026 0 .04-.006h.183a.436.436 0 0 0 .433-.43v-.667l.007-.033s1.033 1.35 3.007 1.35c2.463 0 4.24-2.15 4.24-4.734 0-2.633-1.7-4.706-4.377-4.706v-.004Zm-13.813-3.476h-9.184a.368.368 0 0 0-.37.366v1.607c0 .193.157.37.37.37h3.313v9.987c0 .193.177.37.37.37h1.817a.386.386 0 0 0 .374-.37V12.65h3.313a.369.369 0 0 0 .367-.37v-1.603a.367.367 0 0 0-.367-.37h-.003ZM83.26 17.36c-.04-.88-.744-1.567-1.737-1.567-1.093 0-1.8.667-1.913 1.567h3.65Zm-1.68-3.577c2.343 0 4.14 1.74 4.14 4.18 0 .137-.02.45-.04.587a.458.458 0 0 1-.427.41h-5.777c.017 1.113.934 2.093 2.244 2.093.9 0 1.523-.333 1.933-.666.217-.174.45-.194.587 0l.76 1.016c.156.177.176.39-.037.587a5.092 5.092 0 0 1-3.36 1.233c-2.693 0-4.567-2.153-4.567-4.733 0-2.537 1.874-4.707 4.547-4.707h-.003Z" fill="#6D7D93"/></svg>
